X:129
T:Nathaniel Gow
R:Slow Strathspey
C:Duncan MacIntyre
S:MacDonald - Skye Collection
N:pg.163
M:C
L:1/8
Q:1/4=140
K:Bb
D|:B,>F D<G F<B, {E}D2|B,>FD>F G/F/E/D/ C<D|B,>F D<G F<B, D>B|1
F>GB>c d/c/B/A/ B<d:|2 F>GB>c d/c/B/A/ B<g||
f>B e/d/c/B/ f<B {Bc}d2|f<B d>f g>ce>g|f<B d>f B>fd>f|e>gd>f g<ce<g|
f>B e/d/c/B/ f<B {Bc}d2|f<B d>f g/f/e/d/ c/B/A/G/|F<B G/F/E/D/ F<B, D>F|
(3EGE (3DFD G<CEG||
